backend/papyrus-web-graphics/src/main/resources/icons-override/full/obj16/Extension.svg

<?xml version="1.0" encoding="UTF-8" standalone="no"?>
<svg
   xmlns:dc="http://purl.org/dc/elements/1.1/"
   xmlns:cc="http://creativecommons.org/ns#"
   xmlns:rdf="http://www.w3.org/1999/02/22-rdf-syntax-ns#"
   xmlns:svg="http://www.w3.org/2000/svg"
   xmlns="http://www.w3.org/2000/svg"
   xmlns:sodipodi="http://sodipodi.sourceforge.net/DTD/sodipodi-0.dtd"
   xmlns:inkscape="http://www.inkscape.org/namespaces/inkscape"
   width="18"
   height="16"
   viewBox="0 0 4.7624999 4.2333332"
   version="1.1"
   id="svg8"
   inkscape:version="1.0.1 (3bc2e813f5, 2020-09-07)"
   sodipodi:docname="Extension.svg">
  
  <sodipodi:namedview
     id="base"
     pagecolor="#ffffff"
     bordercolor="#666666"
     borderopacity="1.0"
     inkscape:pageopacity="0"
     inkscape:pageshadow="2"
     inkscape:zoom="23.759715"
     inkscape:cx="29.464678"
     inkscape:cy="20.558312"
     inkscape:document-units="mm"
     inkscape:current-layer="g882"
     inkscape:document-rotation="0"
     showgrid="false"
     inkscape:pagecheckerboard="false"
     inkscape:window-width="3840"
     inkscape:window-height="1995"
     inkscape:window-x="0"
     inkscape:window-y="0"
     inkscape:window-maximized="1"
     units="px" />
  
  <g>
    <g
       id="g882">
      <g
         id="g841"
         transform="matrix(0.74383802,0,0,0.74383802,-0.18638937,-0.05043915)">
        <g
           id="g909"
           transform="matrix(0.03967789,8.735385e-4,-8.735385e-4,0.03967789,0.08123948,-0.11221741)">
          <path
             style="fill:none;stroke:#4d81b4;stroke-width:10;stroke-linecap:round;stroke-linejoin:miter;stroke-miterlimit:4;stroke-dasharray:none;stroke-opacity:1"
             d="M 103.18084,57.802668 24.580471,136.30686"
             id="path891"
             sodipodi:nodetypes="cc" />
          <g
             id="g902">
            <path
               id="path891-3-6-7"
               style="fill:#000000;fill-opacity:1;stroke:#4d81b4;stroke-width:10;stroke-linecap:round;stroke-linejoin:round;stroke-miterlimit:4;stroke-dasharray:none;stroke-opacity:1"
               d="M 148.59335,12.390152 122.27272,76.894551 M 148.59338,12.390126 84.088955,38.710785 M 122.33232,76.83495 84.02935,38.770389" />
          </g>
        </g>
        <path
           id="path891-3-6-7-6-7"
           style="fill:none;fill-opacity:1;stroke:#4d81b4;stroke-width:0.342978;stroke-linecap:round;stroke-linejoin:round;stroke-miterlimit:4;stroke-dasharray:none;stroke-opacity:1"
           d="M 5.1569192,2.171506 4.5139872,1.3269199 5.0765549,1.1238764 M 5.0496211,2.499621 4.2239919,1.4295614 M 3.9210705,1.3509723 5.0826382,0.86056797 M 5.2672906,0.8875164 4.6253057,1.9422671 4.1603596,1.4428906 M 5.671354,0.8526577 4.8627722,2.2005985 M 4.9083268,2.5539796 3.8707632,1.5548825" />
      </g>
    </g>
  </g>
</svg>

<svg xmlns="http://www.w3.org/2000/svg" width="16" height="16">
    <path d="m103.18 57.803-78.6 78.504" style="fill:none;stroke:#4d81b4;stroke-width:10;stroke-linecap:round;stroke-linejoin:miter;stroke-miterlimit:4;stroke-dasharray:none;stroke-opacity:1" transform="matrix(.09712 .00214 -.00214 .09712 -.18 .418)"/>
    <path d="m148.593 12.39-26.32 64.505m26.32-64.505L84.09 38.71m38.243 38.125L84.03 38.77" style="fill:#000;fill-opacity:1;stroke:#4d81b4;stroke-width:10;stroke-linecap:round;stroke-linejoin:round;stroke-miterlimit:4;stroke-dasharray:none;stroke-opacity:1" transform="matrix(.09712 .00214 -.00214 .09712 -.18 .418)"/>
    <path d="m5.157 2.172-.643-.845.563-.203M5.05 2.5l-.826-1.07m-.303-.079 1.162-.49m.184.027-.642 1.054-.465-.5m1.511-.59-.808 1.349m.045.353-1.037-1" style="fill:none;fill-opacity:1;stroke:#4d81b4;stroke-width:.342978;stroke-linecap:round;stroke-linejoin:round;stroke-miterlimit:4;stroke-dasharray:none;stroke-opacity:1" transform="translate(-.38 .693)scale(2.44776)"/>
</svg>
